X: 188
T: Duke of Yorks Fancy
B: 204 Favourite Country Dances
N: Published by Straight & Skillern, London ca.1775
F: http://imslp.org/wiki/204_Favourite_Country_Dances_(Various) p.94 #188
Z: 2014 John Chambers <jc:trillian.mit.edu>
M: 6/8
L: 1/8
K: G
% - - - - - - - - - - - - - - - - - - - - - - - - -
c |\
BGB BGB | AFA AFA |\
(B/c/d)B AFD | G2G G3 :|\
|:\
Tf3 edc | Bcd dBG |
f3 efg | ABA A3 |\
f3 edc | Bcd dBG |\
(B/c/d)G AFD | G2G G3 :|
% - - - - - - - - - - - - - - - - - - - - - - - - -
%%begintext align
%% The 1st Cu. hands round 3 with the 2d Wo .|
%% the same with the 2d Man .|. lead down 2 Cu.
%% and cast up one :|. lead thro' the top cast off
%% and turn your Partner :|:
%%endtext

%%sep 1 1 500
%%sep 1 1 500
